novelwriter/assets/icons/typicons_light/typ_pin-outline.svg

<?xml version="1.0" encoding="UTF-8" standalone="no"?>
<svg
   xmlns:dc="http://purl.org/dc/elements/1.1/"
   xmlns:cc="http://creativecommons.org/ns#"
   xmlns:rdf="http://www.w3.org/1999/02/22-rdf-syntax-ns#"
   xmlns:svg="http://www.w3.org/2000/svg"
   xmlns="http://www.w3.org/2000/svg"
   id="svg5619"
   viewBox="0 0 24 24"
   height="24"
   width="24"
   version="1.2">
  <metadata
     id="metadata5625">
    <rdf:RDF>
      <cc:Work
         rdf:about="">
        <dc:format>image/svg+xml</dc:format>
        <dc:type
           rdf:resource="http://purl.org/dc/dcmitype/StillImage" />
        <dc:title></dc:title>
      </cc:Work>
    </rdf:RDF>
  </metadata>
  <defs
     id="defs5623" />
  <path
     style="stroke-width:1.17614;fill:#4271ae;fill-opacity:1"
     id="path5617"
     d="M 21.321794,7.3993841 16.619582,2.6712968 C 15.735124,1.7821341 14.193203,1.772725 13.291103,2.6642399 13.060579,2.8947636 12.879453,3.1770375 12.799476,3.4040327 12.031456,5.0059369 11.206981,6.0091853 10.148454,6.6113695 L 9.8932312,6.7348644 c -1.138504,0.5704284 -2.687482,1.1514421 -5.5502098,1.1514421 -0.3128535,0 -0.6127695,0.061159 -0.9009241,0.1787735 -0.5692523,0.2375805 -1.033828,0.6998039 -1.2725846,1.2749371 -0.2340521,0.569252 -0.2340521,1.2243629 0,1.7936149 0.1223186,0.292859 0.2940352,0.553963 0.5116213,0.765668 L 6.4859506,15.704116 1.9907392,22 l 6.294707,-4.495212 3.7954078,3.795408 c 0.218762,0.222291 0.477513,0.398712 0.771548,0.518678 C 13.142909,21.940017 13.444001,22 13.753326,22 c 0.309325,0 0.610418,-0.06116 0.899748,-0.181126 0.585719,-0.241109 1.038533,-0.696275 1.270233,-1.26788 0.121142,-0.284626 0.182302,-0.596304 0.182302,-0.903276 0,-2.86508 0.581013,-4.412882 1.150266,-5.552563 0.583366,-1.166732 1.610137,-2.055894 3.239092,-2.839204 0.318734,-0.122319 0.599832,-0.301092 0.836237,-0.537497 0.907981,-0.9197419 0.903276,-2.4122651 -0.0094,-3.3190699 z m -6.172388,5.6466539 c -0.96326,1.932399 -1.397256,3.963595 -1.405489,6.591094 L 4.3430214,10.238589 c 2.5157659,0 4.4858018,-0.3940079 6.3464576,-1.2749372 L 10.965872,8.840157 c 1.645421,-0.8221227 2.902716,-2.2264352 3.984766,-4.5093251 l 4.615178,4.7645472 c -2.191151,1.0502949 -3.594287,2.3052369 -4.41641,3.9506589 z" />
</svg>

<?xml version="1.0" encoding="UTF-8"?>
<svg width="24" height="24" version="1.2" viewBox="0 0 24 24" xmlns="http://www.w3.org/2000/svg">
 <path d="m21.322 7.3994-4.7022-4.7281c-0.88446-0.88916-2.4264-0.89857-3.3285-0.0070569-0.23052 0.23052-0.41165 0.5128-0.49163 0.73979-0.76802 1.6019-1.5925 2.6052-2.651 3.2073l-0.25522 0.12349c-1.1385 0.57043-2.6875 1.1514-5.5502 1.1514-0.31285 0-0.61277 0.061159-0.90092 0.17877-0.56925 0.23758-1.0338 0.6998-1.2726 1.2749-0.23405 0.56925-0.23405 1.2244 0 1.7936 0.12232 0.29286 0.29404 0.55396 0.51162 0.76567l3.8048 3.8048-4.4952 6.2959 6.2947-4.4952 3.7954 3.7954c0.21876 0.22229 0.47751 0.39871 0.77155 0.51868 0.29051 0.12114 0.5916 0.18113 0.90092 0.18113s0.61042-0.06116 0.89975-0.18113c0.58572-0.24111 1.0385-0.69628 1.2702-1.2679 0.12114-0.28463 0.1823-0.5963 0.1823-0.90328 0-2.8651 0.58101-4.4129 1.1503-5.5526 0.58337-1.1667 1.6101-2.0559 3.2391-2.8392 0.31873-0.12232 0.59983-0.30109 0.83624-0.5375 0.90798-0.91974 0.90328-2.4123-0.0094-3.3191zm-6.1724 5.6467c-0.96326 1.9324-1.3973 3.9636-1.4055 6.5911l-9.4009-9.3985c2.5158 0 4.4858-0.39401 6.3465-1.2749l0.27639-0.12349c1.6454-0.82212 2.9027-2.2264 3.9848-4.5093l4.6152 4.7645c-2.1912 1.0503-3.5943 2.3052-4.4164 3.9507z" fill="#4271ae" stroke-width="1.1761"/>
</svg>
